X: 23509
T: Liam O'Flynn's
R: reel
M: 4/4
K: Gmajor
|:"G" G2 BG cABG|"D" AD D2 FGAF|"G"G2 BG cABG|"D" Addc AGGF|
"G"G3B c3B|"D" AD D2 FGAF|"G" G2 BG cABG|"D" Addc AGGf:|
|:"C9" g2 dg Bg g2|"G" g2 dg eaaf|"C9" g2 dg Bggd|"D" cAdc AGGf|
"C9"g2 dg Bg g2|"G" g2 dg eaaf|"C9" g2 dg Bggd|"D" cAdc AGGF:|
|:"G"GDDB cDBD|"D"ADDG FGAF|"G" GDDB cDBD|"D"Addc AGGF|
"G"GDBD cDBD|"D"AD D2 FGAF|"G"GDBD cDBD|"D"Addc AGGf:|
|:"C9" g2 dg Bg g2|"G" g2 dg eaaf|"C9" g2 dg Bggd|"D" cAdc AGGf|
"C9"g2 dg Bg g2|"G" g2 dg eaaf|"C9" g2 dg Bggd|"D" cAdc AGGF:|

